public/icons/dark/express.darkmode.svg

<svg width="192" height="192" viewBox="0 0 192 192" fill="none" xmlns="http://www.w3.org/2000/svg">
<g id="outline">
<path id="Vector" d="M183.05 44.9902H180.06C176.36 44.9902 172.88 46.7102 170.63 49.6502L140.03 89.6702L109.43 49.6502C107.19 46.7202 103.7 44.9902 100.01 44.9902H97.0201L135.61 95.4502L96.1901 147H99.1801C102.88 147 106.36 145.28 108.6 142.34L140.03 101.24L171.46 142.34C173.7 145.27 177.19 147 180.88 147H183.87L144.45 95.4502L183.04 44.9902H183.05ZM83.0101 126.75C74.0301 140.4 56.3401 147.4 39.4301 141.23C24.5501 135.8 15.1601 121.01 15.1601 105.18V101.28H96.0601V86.7402C96.0601 63.8602 79.1101 43.8302 56.3301 41.6802C30.1901 39.2202 8.12012 59.8102 8.12012 85.4502V105.05C8.12012 123.94 19.4301 141.51 37.2101 147.9C60.4401 156.26 84.8701 143.78 93.1201 122.38H90.8801C87.6801 122.38 84.7701 124.07 83.0101 126.75ZM15.1601 85.4502C15.1601 65.0802 31.7301 48.5202 52.0901 48.5202C72.4501 48.5202 89.0201 65.0902 89.0201 85.4502V94.2402H15.1601V85.4502Z" fill="white"/>
</g>
</svg>

<?xml version="1.0" encoding="UTF-8"?><svg id="Capa_2" xmlns="http://www.w3.org/2000/svg" viewBox="0 0 192 192"><defs><style>.cls-1{fill:none;}</style></defs><g id="outline"><rect class="cls-1" width="192" height="192"/><path d="M183.05,44.99h-2.99c-3.7,0-7.18,1.72-9.43,4.66l-30.6,40.02-30.6-40.02c-2.24-2.93-5.73-4.66-9.42-4.66h-2.99l38.59,50.46-39.42,51.55h2.99c3.7,0,7.18-1.72,9.42-4.66l31.43-41.1,31.43,41.1c2.24,2.93,5.73,4.66,9.42,4.66h2.99l-39.42-51.55,38.59-50.46ZM83.01,126.75c-8.98,13.65-26.67,20.65-43.58,14.48-14.88-5.43-24.27-20.22-24.27-36.05v-3.9H96.06v-14.54c0-22.88-16.95-42.91-39.73-45.06-26.14-2.46-48.21,18.13-48.21,43.77v19.6c0,18.89,11.31,36.46,29.09,42.85,23.23,8.36,47.66-4.12,55.91-25.52h-2.24c-3.2,0-6.11,1.69-7.87,4.37ZM15.16,85.45c0-20.37,16.57-36.93,36.93-36.93s36.93,16.57,36.93,36.93v8.79H15.16v-8.79Z"/></g></svg>
